X: 31955
T: Pearl Wedding, The
R: reel
M: 4/4
K: Dmajor
|:AF|D2 D>E DF Ad|fg/f/ f>e dB Bd/B/|F/G/A A>B AF Ad|ce- e>f ec AF|
D2 DD/E/ D>F Ad|f2 fe dB B/c/d|F<A A>B A>F A/B/c/d/|cd e>c d2:|
|:fg|a2 ag f2 ed|B<d d>B AF EF|D>F Ad f<a fd|ce e>f e2 fg|
a>b ag fg/f/ ed|B/c/d dc/B/ AF ED|DF A>D FA Ad|cd ec/A/ d2:|

